packages/core/src/svgs/lords.svg

<svg width="24" height="24" viewBox="0 0 24 24" fill="none" xmlns="http://www.w3.org/2000/svg">
<g clip-path="url(#clip0_31_13357)">
<path d="M0 0H24V24H0V0Z" fill="url(#paint0_linear_31_13357)"/>
<path fill-rule="evenodd" clip-rule="evenodd" d="M5.55425 17.1431L5.14282 14.5502H5.44711C5.53065 14.9628 5.70467 15.3517 5.95665 15.6889C6.20862 16.0261 6.53226 16.3032 6.90425 16.5002H9.07711C9.53568 16.5002 9.90854 16.2174 9.90854 15.7545V14.9402C8.02282 14.0788 7.70139 12.0002 7.71425 11.0702C7.71425 8.99592 8.84996 7.82592 9.48425 7.5045L8.37425 7.06735V6.85735H9.42854V5.14307H10.0071V5.98735C10.0071 6.47164 10.3928 6.85735 10.8771 6.85735C11.3571 6.85735 11.7471 6.47164 11.7471 5.98735V5.14307H12.2528V5.98735C12.2528 6.47164 12.6385 6.86592 13.1228 6.86592C13.6028 6.86592 13.9928 6.47164 13.9928 5.98735V5.14307H14.5714V6.85735H15.6257V7.06735L14.5157 7.5045C15.15 7.82592 16.2857 8.99592 16.2857 11.0702C16.2985 12.0002 15.9814 14.0788 14.0914 14.9359V15.7502C14.0914 16.2174 14.4643 16.5002 14.9228 16.5002H17.0957C17.4677 16.3032 17.7913 16.0261 18.0433 15.6889C18.2953 15.3517 18.4693 14.9628 18.5528 14.5502H18.8571L18.4457 17.1431H13.2857V7.7145H10.7143V17.1431H5.55425ZM9.85711 13.9074V8.22878C9.42854 8.50735 8.57139 9.46735 8.57139 11.0574C8.57139 12.6516 9.42854 13.6202 9.85711 13.9074ZM14.1428 13.9074V8.22878C14.5714 8.50735 15.4285 9.46735 15.4285 11.0574C15.4285 12.6516 14.5714 13.6202 14.1428 13.9074Z" fill="white"/>
</g>
<defs>
<linearGradient id="paint0_linear_31_13357" x1="4.46571" y1="4.16143" x2="29.2071" y2="32.58" gradientUnits="userSpaceOnUse">
<stop stop-color="#1A1E21"/>
<stop offset="1" stop-color="#06060A"/>
</linearGradient>
<clipPath id="clip0_31_13357">
<rect width="24" height="24" fill="white"/>
</clipPath>
</defs>
</svg>

<svg xmlns="http://www.w3.org/2000/svg" width="24" height="24" fill="none" viewBox="0 0 24 24"><g clip-path="url(#a)"><path fill="url(#b)" d="M0 0h24v24H0z"/><path fill="#fff" fill-rule="evenodd" d="m5.554 17.143-.411-2.593h.304a2.85 2.85 0 0 0 1.457 1.95h2.173c.459 0 .832-.283.832-.745v-.815C8.023 14.08 7.7 12 7.714 11.07c0-2.074 1.136-3.244 1.77-3.565l-1.11-.438v-.21H9.43V5.143h.578v.844c0 .485.386.87.87.87.48 0 .87-.385.87-.87v-.844h.506v.844c0 .485.386.879.87.879.48 0 .87-.394.87-.879v-.844h.578v1.714h1.055v.21l-1.11.438c.634.32 1.77 1.49 1.77 3.565.012.93-.305 3.009-2.195 3.866v.814c0 .467.373.75.832.75h2.173a2.85 2.85 0 0 0 1.457-1.95h.304l-.411 2.593h-5.16V7.715h-2.572v9.428zm4.303-3.236V8.23c-.428.278-1.286 1.238-1.286 2.828 0 1.595.858 2.563 1.286 2.85m4.286 0V8.23c.428.278 1.285 1.238 1.285 2.828 0 1.595-.857 2.563-1.285 2.85" clip-rule="evenodd"/></g><defs><linearGradient id="b" x1="4.466" x2="29.207" y1="4.161" y2="32.58" gradientUnits="userSpaceOnUse"><stop stop-color="#1A1E21"/><stop offset="1" stop-color="#06060A"/></linearGradient><clipPath id="a"><path fill="#fff" d="M0 0h24v24H0z"/></clipPath></defs></svg>
